<?xml version="1.0" encoding="UTF-8"?>
<map version="1.10" tiledversion="1.12.1" orientation="orthogonal" renderorder="right-down" width="40" height="23" tilewidth="32" tileheight="32" infinite="0" nextlayerid="2" nextobjectid="1">
 <tileset firstgid="1" source="GroundChipsFacility.tsx"/>
 <layer id="1" name="タイルレイヤー1" width="40" height="23">
  <data encoding="csv">
62,62,62,61,62,62,62,62,35,62,62,62,62,62,35,62,62,62,35,62,62,62,62,62,62,62,62,62,62,35,35,35,62,62,62,62,62,62,62,62,
62,62,62,61,62,62,62,62,35,62,62,62,62,62,35,62,62,62,35,62,62,62,62,62,62,62,62,62,62,35,35,35,62,62,62,62,62,62,62,62,
62,62,62,61,62,62,34,62,35,62,62,34,62,62,35,62,34,62,35,62,62,34,62,62,62,62,62,62,62,35,35,35,62,62,62,62,62,62,62,62,
62,62,62,61,62,62,62,62,35,62,62,62,62,62,35,62,62,62,35,62,62,62,62,62,62,62,62,62,62,35,35,35,62,62,43,62,62,43,62,62,
62,62,62,61,62,62,62,62,35,62,62,62,62,62,35,62,62,62,35,62,62,62,62,62,62,62,62,62,62,35,35,35,62,62,62,62,62,62,62,62,
62,62,62,61,62,62,62,62,35,62,62,62,62,62,35,62,62,62,35,62,62,62,62,62,62,62,62,62,62,35,35,35,62,62,62,62,62,62,62,62,
62,62,62,61,62,62,34,62,35,62,62,34,62,62,35,62,34,62,35,62,62,34,62,62,62,62,62,62,62,35,35,35,62,62,62,62,62,62,62,62,
62,62,62,61,62,62,62,62,35,62,62,62,62,62,35,62,62,62,35,62,62,62,62,62,62,62,62,62,62,35,35,35,62,62,62,62,62,62,62,62,
62,62,62,61,62,62,62,62,35,62,62,62,62,62,35,62,62,62,35,62,62,62,62,62,62,62,62,62,62,35,35,35,62,62,43,62,62,43,62,62,
36,36,36,61,36,36,36,36,35,36,36,36,36,36,35,36,36,36,35,36,36,36,36,36,62,62,62,62,62,35,35,35,62,62,62,62,62,62,62,62,
36,36,36,61,36,36,36,36,35,36,36,36,36,36,35,36,36,36,35,36,36,36,36,36,36,62,62,62,62,35,35,35,62,62,62,62,62,62,62,62,
62,62,62,61,62,62,34,62,44,62,62,34,62,62,44,62,34,62,44,62,62,34,62,62,62,62,62,62,62,35,35,35,62,62,62,62,62,62,62,62,
62,62,62,61,62,62,62,62,62,62,62,62,62,62,62,62,62,62,62,62,62,62,62,62,62,62,62,62,62,35,35,35,62,62,62,62,62,62,62,62,
62,62,62,70,53,53,53,53,53,53,53,53,53,53,53,53,53,53,53,53,53,53,53,53,54,62,62,62,62,35,35,35,62,62,43,62,62,43,62,62,
62,62,62,62,62,62,36,62,62,62,62,62,62,62,62,62,62,62,62,62,62,62,62,62,45,62,62,62,62,35,35,35,62,62,62,62,62,62,62,62,
62,62,62,62,62,62,62,62,62,62,62,62,62,62,62,62,62,62,62,62,62,62,62,62,45,62,62,62,62,35,35,35,62,62,62,62,62,62,62,62,
62,62,62,62,62,62,62,62,62,62,62,62,62,62,62,62,62,62,62,62,62,62,62,62,45,62,62,62,62,35,35,35,62,62,62,62,62,62,62,62,
62,62,62,62,62,62,62,62,62,62,62,62,62,62,62,62,62,62,62,62,62,62,62,62,45,62,62,62,62,35,35,44,62,62,62,62,62,62,62,62,
62,62,43,62,62,62,62,62,43,62,62,62,62,62,43,62,62,62,62,62,43,62,62,62,45,62,62,62,62,35,35,62,62,62,43,62,62,43,62,62,
62,52,53,54,62,62,62,52,53,54,62,62,62,52,53,54,62,62,62,52,53,54,62,62,45,62,62,62,62,35,44,62,62,62,62,62,62,62,62,62,
62,61,62,63,62,62,62,61,62,63,62,62,62,61,62,63,62,62,62,61,62,63,62,62,45,62,62,36,36,35,62,62,62,62,62,62,62,62,62,62,
36,70,71,72,62,62,62,70,71,72,62,62,62,70,71,72,62,62,62,70,71,72,62,62,45,62,36,62,62,35,62,62,62,62,62,62,62,62,62,62,
36,36,62,62,62,62,62,62,62,62,62,62,62,62,62,62,62,62,62,62,62,62,62,62,45,62,62,62,62,44,62,62,62,62,62,62,62,62,62,62
</data>
 </layer>
</map>
