<?xml version="1.0" encoding="UTF-8"?>
<map version="1.10" tiledversion="1.11.2" orientation="orthogonal" renderorder="right-down" width="40" height="23" tilewidth="32" tileheight="32" infinite="0" nextlayerid="4" nextobjectid="1">
 <editorsettings>
  <export target="../../Resource/CSV/StageTrain.csv" format="csv"/>
 </editorsettings>
 <tileset firstgid="1" source="TrainChips.tsx"/>
 <layer id="2" name="装飾1" width="40" height="23">
  <data encoding="csv">
290,291,290,291,290,291,290,291,290,291,290,291,290,291,290,291,290,291,312,313,312,313,312,313,312,313,312,313,312,313,312,313,312,313,312,313,290,291,290,291,
312,313,312,313,312,313,312,313,312,313,312,313,312,313,312,313,312,313,334,335,334,335,334,335,334,335,334,335,334,335,334,335,334,335,334,335,312,313,312,313,
334,335,334,288,334,335,334,335,293,335,334,335,334,335,334,293,334,335,290,291,290,291,293,291,290,291,290,291,290,293,290,291,290,291,290,291,288,335,334,335,
290,291,290,310,290,291,290,291,315,291,290,291,290,291,290,315,290,291,312,313,312,313,315,313,312,313,312,313,312,315,312,313,312,313,312,313,310,335,334,335,
312,313,312,332,312,313,312,313,337,313,312,313,312,313,312,337,312,313,334,335,334,335,337,335,334,335,334,335,334,337,334,335,334,335,334,335,332,313,312,313,
334,335,334,354,356,357,356,357,359,357,356,357,356,357,356,359,356,357,356,357,356,357,359,357,356,357,356,357,356,359,356,357,356,357,356,357,354,335,334,335,
290,291,290,376,0,0,0,0,381,291,290,0,0,0,0,381,290,291,0,0,0,0,381,313,312,0,0,0,0,381,312,313,0,0,0,0,288,291,290,291,
312,313,312,398,0,0,0,0,403,313,312,0,0,0,0,403,312,313,0,0,0,0,403,335,334,0,0,0,0,403,334,335,0,0,0,0,310,313,312,313,
334,335,334,288,0,0,0,0,293,335,334,0,0,0,0,293,334,335,0,0,0,0,293,291,290,0,0,0,0,293,290,291,0,0,0,0,332,335,334,335,
290,291,290,310,0,0,0,0,315,291,290,0,0,0,0,315,290,291,0,0,0,0,315,313,312,0,0,0,0,315,312,313,0,0,0,0,376,313,312,313,
312,313,312,332,0,0,0,0,337,313,312,0,0,0,0,337,312,313,0,0,0,0,337,335,334,0,0,0,0,337,334,335,0,0,0,0,398,335,334,335,
334,335,334,332,0,0,0,0,337,335,334,0,0,0,0,337,334,335,0,0,0,0,337,291,290,0,0,0,0,337,290,291,0,0,0,0,288,291,290,291,
290,291,290,376,0,0,0,0,381,291,290,0,0,0,0,381,290,291,0,0,0,0,381,313,312,0,0,0,0,381,312,313,0,0,0,0,310,313,312,313,
312,313,312,398,0,0,0,0,403,313,312,0,0,0,0,403,312,313,0,0,0,0,403,335,334,0,0,0,0,403,334,335,0,0,0,0,332,335,334,335,
334,335,334,288,356,357,356,357,359,357,356,357,356,357,356,359,356,357,356,357,356,357,359,357,356,357,356,357,356,359,356,357,356,357,356,357,354,291,290,291,
290,291,290,310,290,291,290,291,315,291,290,291,290,291,290,315,290,291,312,313,312,313,315,313,312,313,312,313,312,315,312,313,312,313,312,313,376,313,312,313,
312,313,312,332,312,313,312,313,337,313,312,313,312,313,312,337,312,313,334,335,334,335,337,335,334,335,334,335,334,337,334,335,334,335,334,335,398,335,334,335,
334,335,334,398,334,335,334,335,337,335,334,335,334,335,334,337,334,335,290,291,290,291,337,291,290,291,290,291,290,337,290,291,290,291,290,291,288,291,290,291,
290,291,290,376,290,291,290,291,381,291,290,291,290,291,290,381,290,291,312,313,312,313,381,313,312,313,312,313,312,381,312,313,312,313,312,313,310,313,312,313,
312,313,312,398,312,313,312,313,403,313,312,313,312,313,312,403,312,313,334,335,334,335,403,335,334,335,334,335,334,403,334,335,334,335,334,335,332,335,334,335,
334,335,334,335,334,335,334,335,334,335,334,335,334,335,334,335,334,335,290,291,290,291,290,291,290,291,290,291,290,291,290,291,290,291,290,291,290,291,290,291,
290,291,290,291,290,291,290,291,290,291,290,291,290,291,290,291,290,291,312,313,312,313,312,313,312,313,312,313,312,313,312,313,312,313,312,313,312,313,312,313,
312,313,312,313,312,313,312,313,312,313,312,313,312,313,312,313,312,313,334,335,334,335,334,335,334,335,334,335,334,335,334,335,334,335,334,335,334,335,334,335
</data>
 </layer>
 <layer id="3" name="装飾2" width="40" height="23">
  <data encoding="csv">
0,0,0,0,0,0,0,0,0,0,0,0,0,0,0,0,0,0,0,0,0,0,0,0,0,0,0,0,0,0,0,0,0,0,0,0,0,0,0,0,
0,0,0,0,0,0,0,0,0,0,0,0,0,0,0,0,0,0,0,0,0,0,0,0,0,0,0,0,0,0,0,0,0,0,0,0,0,0,0,0,
0,0,0,0,0,0,0,0,0,0,39,0,0,0,0,0,0,0,0,0,39,0,0,0,0,0,0,0,0,0,39,0,0,0,0,0,0,0,0,0,
0,0,0,0,0,0,0,0,0,0,0,0,0,0,0,0,0,0,0,0,0,0,0,0,0,0,0,0,0,0,0,0,0,0,0,0,0,0,0,0,
0,0,0,0,0,0,0,0,0,0,0,0,0,0,0,0,0,0,0,0,0,0,0,0,0,0,0,0,0,0,0,0,0,0,0,0,0,0,0,0,
0,0,0,0,0,0,0,0,0,0,0,0,0,0,0,0,0,0,0,0,0,0,0,0,0,0,0,0,0,0,0,0,0,0,0,0,0,0,0,0,
0,0,0,0,0,0,0,0,0,0,0,0,0,0,0,0,0,0,0,0,0,0,0,0,0,0,0,0,0,0,0,0,0,0,0,0,0,0,0,0,
0,0,0,0,0,0,0,0,0,0,0,0,0,0,0,0,0,0,0,0,0,0,0,0,0,0,0,0,0,0,0,0,0,0,0,0,0,0,0,0,
0,0,0,0,0,0,0,0,0,0,0,0,0,0,0,0,0,0,0,0,0,0,0,0,0,0,0,0,0,0,0,0,0,0,0,0,0,0,0,0,
0,0,0,0,0,0,0,0,0,0,0,0,0,0,0,0,0,0,0,0,0,0,0,0,0,0,0,0,0,0,0,0,0,0,0,0,0,0,0,0,
0,0,0,0,0,0,0,0,0,0,0,0,0,0,0,0,0,0,0,0,0,0,0,0,0,0,0,0,0,0,0,0,0,0,0,0,0,0,0,0,
0,0,0,0,0,0,0,0,0,0,0,0,0,0,0,0,0,0,0,0,0,0,0,0,0,0,0,0,0,0,0,0,0,0,0,0,0,0,0,0,
0,0,0,0,0,0,0,0,0,0,0,0,0,0,0,0,0,0,0,0,0,0,0,0,0,0,0,0,0,0,0,0,0,0,0,0,0,0,0,0,
0,0,0,0,0,0,0,0,0,0,0,0,0,0,0,0,0,0,0,0,0,0,0,0,0,0,0,0,0,0,0,0,0,0,0,0,0,0,0,0,
0,0,0,0,0,0,0,0,0,0,0,0,0,0,0,0,0,0,0,0,0,0,0,0,0,0,0,0,0,0,0,0,0,0,0,0,0,0,0,0,
0,0,0,0,0,0,0,0,0,0,0,0,0,0,0,0,0,0,0,0,0,0,0,0,0,0,0,0,0,0,0,0,42,43,0,0,0,0,0,0,
0,0,0,0,0,40,0,0,0,0,0,40,0,0,0,0,0,0,0,0,0,0,0,41,0,0,0,0,0,0,0,0,0,0,0,0,0,0,0,0,
0,0,0,0,36,37,36,37,0,36,37,36,37,0,0,0,0,64,65,0,0,0,0,0,0,40,0,0,0,0,0,0,0,0,0,0,0,0,0,0,
0,0,0,0,58,59,58,59,0,58,59,58,59,0,0,0,60,61,62,63,0,0,146,147,148,149,150,0,106,107,108,109,0,190,191,192,193,194,0,0,
0,0,0,0,80,81,80,81,0,80,81,80,81,0,0,0,82,83,84,85,0,0,168,169,170,171,172,0,128,129,130,131,0,212,213,214,215,216,0,0,
0,0,0,0,0,0,0,0,0,0,0,0,0,0,0,0,0,0,0,0,0,0,0,0,0,0,0,0,0,0,0,0,0,0,0,0,0,0,0,0,
0,0,0,0,0,0,0,0,0,0,0,0,0,0,0,0,0,0,0,0,0,0,0,0,0,0,0,0,0,0,0,0,0,0,0,0,0,0,0,0,
0,0,0,0,0,0,0,0,0,0,0,0,0,0,0,0,0,0,0,0,0,0,0,0,0,0,0,0,0,0,0,0,0,0,0,0,0,0,0,0
</data>
 </layer>
 <layer id="1" name="衝突判定" width="40" height="23" visible="0">
  <data encoding="csv">
47,47,47,47,47,47,47,47,47,47,47,47,47,47,47,47,47,47,47,47,47,47,47,47,47,47,47,47,47,47,47,47,47,47,47,47,47,47,47,47,
47,30,69,69,69,69,69,69,69,69,69,69,69,69,69,69,69,69,69,69,69,69,69,69,69,69,69,69,69,69,69,69,69,69,69,69,69,69,31,47,
47,48,0,0,0,0,0,0,0,0,0,0,0,0,0,0,0,0,0,0,0,0,0,0,0,0,0,0,0,0,0,0,0,0,0,0,0,0,46,47,
47,48,0,0,0,0,0,0,0,0,0,0,0,0,0,0,0,0,0,0,0,0,0,0,0,0,0,0,0,0,0,0,0,0,0,0,0,0,46,47,
47,48,0,0,0,0,0,0,0,0,0,0,0,0,0,0,0,0,0,0,0,0,0,0,0,0,0,0,0,0,0,0,0,0,0,0,0,0,46,47,
47,48,0,0,0,0,0,0,0,0,0,0,0,0,0,0,0,0,0,0,0,0,0,0,0,0,0,0,0,0,0,0,0,0,0,0,0,0,46,47,
47,48,0,0,0,0,0,0,0,0,0,0,0,0,0,0,0,0,0,0,0,0,0,0,0,0,0,0,0,0,0,0,0,0,0,0,0,0,46,47,
47,48,0,0,0,0,0,0,0,0,0,0,0,0,0,0,0,0,0,0,0,0,0,0,0,0,0,0,0,0,0,0,0,0,0,0,0,0,46,47,
47,48,0,0,0,0,0,0,0,0,0,0,0,0,0,0,0,0,0,0,0,0,0,0,0,0,0,0,0,0,0,0,0,0,0,0,0,0,46,47,
47,48,0,0,0,0,0,0,0,0,0,0,0,0,0,0,0,0,0,0,0,0,0,0,0,0,0,0,0,0,0,0,0,0,0,0,0,0,46,47,
47,48,0,0,0,0,0,0,0,0,0,0,0,0,0,0,0,0,0,0,0,0,0,0,0,0,0,0,0,0,0,0,0,0,0,0,0,0,46,47,
47,48,0,0,0,0,0,0,0,0,0,0,0,0,0,0,0,0,0,0,0,0,0,0,0,0,0,0,0,0,0,0,0,0,0,0,0,0,46,47,
47,48,0,0,0,0,0,0,0,0,0,0,0,0,0,0,0,0,0,0,0,0,0,0,0,0,0,0,0,0,0,0,0,0,0,0,0,0,46,47,
47,48,0,0,0,0,0,0,0,0,0,0,0,0,0,0,0,0,0,0,0,0,0,0,0,0,0,0,0,0,0,0,0,0,0,0,0,0,46,47,
47,48,0,0,0,0,0,0,0,0,0,0,0,0,0,0,0,0,0,0,0,0,0,0,0,0,0,0,0,0,0,0,0,0,0,0,0,0,46,47,
47,48,0,0,0,0,0,0,0,0,0,0,0,0,0,0,0,0,0,0,0,0,0,0,0,0,0,0,0,0,0,0,0,0,0,0,0,0,46,47,
69,70,0,0,0,0,0,0,0,0,0,0,0,0,0,0,0,0,0,0,0,0,0,0,0,0,0,0,0,0,0,0,0,0,0,0,0,0,46,47,
0,0,0,0,0,0,0,0,0,0,0,0,0,0,0,0,0,0,0,0,0,0,0,0,0,0,0,0,0,0,0,0,0,0,0,0,0,0,46,47,
0,0,0,0,0,0,0,0,0,0,0,0,0,0,0,0,0,0,0,0,0,0,0,0,0,0,0,0,0,0,0,0,0,0,0,0,0,0,46,47,
0,0,0,0,0,0,0,0,0,0,0,0,0,0,0,0,0,0,0,0,0,0,0,0,0,0,0,0,0,0,0,0,0,0,0,0,0,0,46,47,
25,25,25,25,25,25,25,25,25,25,25,25,25,25,25,25,25,25,25,25,25,25,25,25,25,25,25,25,25,25,25,25,25,25,25,25,25,25,53,47,
47,47,47,47,47,47,47,47,47,47,47,47,47,47,47,47,47,47,47,47,47,47,47,47,47,47,47,47,47,47,47,47,47,47,47,47,47,47,47,47,
69,69,69,69,69,69,69,69,69,69,69,69,69,69,69,69,69,69,69,69,69,69,69,69,69,69,69,69,69,69,69,69,69,69,69,69,69,69,69,69
</data>
 </layer>
</map>
